; HEADER_BLOCK_START
; generated by OrcaSlicer 2.3.1 on 2025-11-15 at 13:51:17
; total layer number: 150
; filament_density: 1.24
; filament_diameter: 1.75
; max_z_height: 30.00
; HEADER_BLOCK_END

; THUMBNAIL_BLOCK_START

;
; THUMBNAIL_BLOCK_END

; THUMBNAIL_BLOCK_START

;
; THUMBNAIL_BLOCK_END

; external perimeters extrusion width = 0.42mm
; perimeters extrusion width = 0.45mm
; infill extrusion width = 0.45mm
; solid infill extrusion width = 0.42mm
; top infill extrusion width = 0.42mm
; first layer extrusion width = 0.50mm

; external perimeters extrusion width = 0.42mm
; perimeters extrusion width = 0.45mm
; infill extrusion width = 0.45mm
; solid infill extrusion width = 0.42mm
; top infill extrusion width = 0.42mm
; first layer extrusion width = 0.50mm

; EXECUTABLE_BLOCK_START
M73 P0 R29
M106 S0
M106 P2 S0
;TYPE:Custom
SET_PRINT_STATS_INFO TOTAL_LAYER=150 CURRENT_LAYER=0

START_PRINT EXTRUDER_TEMP=220 BED_TEMP=55 Chamber=0 PRINT_MIN=-16.7,-31.172 PRINT_MAX=16.7,30.9614 FORCE_LEVELING=true
G90
G21
M83 ; use relative distances for extrusion
; filament start gcode
;right_extruder_material: PLA
SET_PRESSURE_ADVANCE ADVANCE=0.025; Override pressure advance value
M106 S0
M106 P2 S0
;LAYER_CHANGE
;Z:0.2
;HEIGHT:0.2
;BEFORE_LAYER_CHANGE
;0.2
G1 E-.8 F2100
TIMELAPSE_TAKE_FRAME
;AFTER_LAYER_CHANGE
;0.2
SET_PRINT_STATS_INFO CURRENT_LAYER=1
M117 Layer 1/150 : Flashforge Generic PLA
;_SET_FAN_SPEED_CHANGING_LAYER
SET_VELOCITY_LIMIT ACCEL=500
G1 X3.472 Y25.703 F30000
G1 Z.6
G1 Z.2
G1 E.8 F2100
;TYPE:Inner wall
;WIDTH:0.5
G1 F3000
G1 X3.009 Y25.842 E.01801
G1 X2.126 Y26.036 E.03365
G1 X1.243 Y26.161 E.03321
G1 X.328 Y26.222 E.03418
G1 X-.559 Y26.213 E.03302
G1 X-1.464 Y26.136 E.03384
G1 X-2.34 Y25.995 E.03303
G1 X-2.797 Y25.895 E.01745
G1 X-3.656 Y25.654 E.03321
G1 X-4.494 Y25.35 E.03322
G1 X-4.925 Y25.166 E.01745
G1 X-5.713 Y24.774 E.03277
G1 X-6.116 Y24.545 E.01727
G1 X-6.869 Y24.058 E.0334
G1 X-7.576 Y23.522 E.03304
G1 X-7.932 Y23.219 E.01745
G1 X-8.573 Y22.608 E.03297
G1 X-8.893 Y22.266 E.01745
G1 X-9.462 Y21.585 E.03305
G1 X-9.99 Y20.846 E.03383
G1 X-10.451 Y20.088 E.03306
G1 X-10.671 Y19.674 E.01745
G1 X-11.04 Y18.875 E.03279
G1 X-11.209 Y18.446 E.01718
G1 X-11.361 Y18.015 E.01701
G1 X-11.608 Y17.163 E.03305
G1 X-11.794 Y16.278 E.03367
G1 X-11.911 Y15.392 E.0333
G1 X-11.946 Y14.928 E.01734
G1 X-11.963 Y14.046 E.03286
G1 X-11.946 Y13.58 E.01734
G1 X-11.861 Y12.688 E.03337
G1 X-11.712 Y11.812 E.03313
G1 X-11.607 Y11.358 E.01734
G1 X-11.358 Y10.498 E.03336
G1 X-11.047 Y9.664 E.03312
G1 X-10.862 Y9.245 E.01708
G1 X-10.662 Y8.832 E.01708
G1 X-10.23 Y8.055 E.03312
G1 X-9.737 Y7.307 E.03337
G1 X-9.459 Y6.934 E.01734
G1 X-8.888 Y6.251 E.03312
G1 X-8.264 Y5.609 E.03337
G1 X-7.921 Y5.294 E.01734
G1 X-7.233 Y4.73 E.03312
G1 X-6.494 Y4.212 E.03363
G1 X-5.729 Y3.757 E.03313
G1 X-5.321 Y3.545 E.01713
G1 X-4.905 Y3.348 E.01716
G1 X-4.083 Y3.014 E.03305
G1 X-3.23 Y2.741 E.03337
G1 X-2.779 Y2.624 E.01734
G1 X-1.916 Y2.451 E.03279
G1 X-1.455 Y2.385 E.01734
G1 X-.562 Y2.309 E.03337
G1 X.341 Y2.301 E.03363
G1 X1.226 Y2.359 E.03305
G1 X1.688 Y2.416 E.01734
G1 X2.563 Y2.574 E.03311
G1 X3.016 Y2.683 E.01734
G1 X3.866 Y2.938 E.03305
G1 X4.702 Y3.259 E.03337
G1 X5.127 Y3.45 E.01735
G1 X5.917 Y3.861 E.03316
G1 X6.678 Y4.334 E.03338
G1 X7.057 Y4.599 E.01724
G1 X7.751 Y5.146 E.0329
G1 X8.102 Y5.457 E.01745
G1 X8.73 Y6.08 E.03296
G1 X9.326 Y6.766 E.03384
G1 X9.854 Y7.476 E.03296
G1 X10.113 Y7.867 E.01745
G1 X10.563 Y8.642 E.03339
G1 X10.952 Y9.443 E.03317
G1 X11.289 Y10.296 E.03417
G1 X11.551 Y11.142 E.03298
G1 X11.755 Y12.028 E.03385
G1 X11.887 Y12.903 E.03298
G1 X11.957 Y13.823 E.03438
G1 X11.957 Y14.709 E.03298
G1 X11.888 Y15.615 E.03384
G1 X11.755 Y16.491 E.03299
G1 X11.659 Y16.949 E.01745
G1 X11.425 Y17.814 E.03338
G1 X11.131 Y18.65 E.03299
G1 X10.762 Y19.49 E.03417
G1 X10.346 Y20.272 E.033
G1 X9.867 Y21.03 E.03339
G1 X9.594 Y21.411 E.01745
G1 X9.039 Y22.101 E.033
G1 X8.418 Y22.764 E.03384
G1 X7.765 Y23.364 E.03301
G1 X7.041 Y23.935 E.03437
G1 X6.305 Y24.43 E.03301
G1 X5.52 Y24.877 E.03365
G1 X4.719 Y25.256 E.03301
G1 X3.858 Y25.587 E.03438
G1 X3.51 Y25.692 E.01352
G1 X3.328 Y25.224 F30000
;TYPE:Outer wall
G1 F3000
G1 X2.883 Y25.358 E.01731
G1 X2.037 Y25.544 E.03225
G1 X1.187 Y25.664 E.03198
G1 X.756 Y25.701 E.01613
G1 X.318 Y25.722 E.01631
G1 X-.535 Y25.714 E.0318
G1 X-1.403 Y25.64 E.03244
G1 X-2.246 Y25.504 E.0318
G1 X-2.676 Y25.409 E.01639
G1 X-3.503 Y25.178 E.03199
G1 X-4.31 Y24.885 E.03199
G1 X-4.715 Y24.712 E.0164
G1 X-5.478 Y24.333 E.03172
G1 X-5.856 Y24.118 E.01622
G1 X-6.582 Y23.649 E.03217
G1 X-7.262 Y23.133 E.03181
G1 X-7.597 Y22.847 E.0164
G1 X-8.217 Y22.256 E.03191
G1 X-8.518 Y21.935 E.01639
G1 X-9.066 Y21.279 E.03182
G1 X-9.572 Y20.571 E.03243
G1 X-10.016 Y19.84 E.03183
G1 X-10.223 Y19.452 E.01639
G1 X-10.58 Y18.678 E.03174
G1 X-10.741 Y18.271 E.01631
G1 X-10.885 Y17.862 E.01614
G1 X-11.123 Y17.042 E.03183
G1 X-11.301 Y16.194 E.03227
G1 X-11.414 Y15.34 E.03207
G1 X-11.447 Y14.904 E.01629
G1 X-11.463 Y14.05 E.03181
G1 X-11.446 Y13.613 E.01629
G1 X-11.365 Y12.754 E.03214
G1 X-11.221 Y11.91 E.0319
G1 X-11.123 Y11.484 E.01629
G1 X-10.883 Y10.655 E.03214
G1 X-10.583 Y9.853 E.0319
G1 X-10.408 Y9.454 E.0162
G1 X-10.218 Y9.063 E.0162
G1 X-9.802 Y8.315 E.0319
G1 X-9.327 Y7.594 E.03214
G1 X-9.066 Y7.243 E.01629
G1 X-8.517 Y6.586 E.0319
G1 X-7.915 Y5.967 E.03214
G1 X-7.593 Y5.672 E.01629
G1 X-6.931 Y5.129 E.0319
G1 X-6.222 Y4.632 E.03222
G1 X-5.486 Y4.194 E.0319
G1 X-5.099 Y3.993 E.01626
G1 X-4.704 Y3.806 E.01628
G1 X-3.912 Y3.485 E.03183
G1 X-3.09 Y3.221 E.03214
G1 X-2.667 Y3.111 E.01629
G1 X-1.832 Y2.944 E.03174
G1 X-1.398 Y2.882 E.01629
G1 X-.539 Y2.809 E.03214
G1 X.327 Y2.801 E.03223
G1 X1.179 Y2.857 E.03183
G1 X1.613 Y2.911 E.01629
G1 X2.46 Y3.064 E.03206
G1 X2.886 Y3.166 E.01629
G1 X3.704 Y3.411 E.03182
G1 X4.51 Y3.721 E.03214
G1 X4.909 Y3.9 E.01629
G1 X5.669 Y4.296 E.03194
G1 X6.403 Y4.751 E.03215
G1 X6.759 Y5.001 E.01619
G1 X7.43 Y5.53 E.03185
G1 X7.76 Y5.822 E.0164
G1 X8.365 Y6.422 E.03174
G1 X8.936 Y7.079 E.03244
G1 X9.445 Y7.763 E.03174
G1 X9.688 Y8.13 E.0164
G1 X10.122 Y8.877 E.03216
G1 X10.496 Y9.649 E.03195
G1 X10.662 Y10.048 E.01611
G1 X10.816 Y10.458 E.01631
G1 X11.068 Y11.272 E.03175
G1 X11.263 Y12.121 E.03244
G1 X11.391 Y12.964 E.03175
G1 X11.432 Y13.4 E.01631
G1 X11.457 Y13.837 E.01631
G1 X11.457 Y14.69 E.03175
G1 X11.391 Y15.558 E.03244
G1 X11.263 Y16.402 E.03176
G1 X11.173 Y16.832 E.0164
G1 X10.948 Y17.666 E.03216
G1 X10.664 Y18.47 E.03177
G1 X10.498 Y18.87 E.01612
G1 X10.314 Y19.267 E.01631
G1 X9.913 Y20.021 E.03177
G1 X9.452 Y20.75 E.03216
G1 X9.196 Y21.108 E.0164
G1 X8.661 Y21.773 E.03178
G1 X8.066 Y22.409 E.03244
G1 X7.437 Y22.986 E.03178
G1 X7.099 Y23.264 E.01631
G1 X6.75 Y23.528 E.01631
G1 X6.042 Y24.005 E.03179
G1 X5.289 Y24.433 E.03225
G1 X4.518 Y24.798 E.03178
G1 X4.112 Y24.963 E.01631
G1 X3.701 Y25.112 E.01631
G1 X3.366 Y25.213 E.01299
G1 E-.8 F2100
;WIPE_START
G1 F3000
G1 X2.883 Y25.358
G1 X2.037 Y25.544
G1 X1.414 Y25.632
;WIPE_END
G1 X4.035 Y18.464 Z.6 F30000
G1 X10.615 Y.461 Z.6
G1 Z.2
G1 E.8 F2100
;TYPE:Inner wall
G1 F3000
G1 X13.8 Y3.646 E.16774
G1 X13.8 Y24.877 E.79077
G1 X10.615 Y28.061 E.16774
G1 X-10.615 Y28.061 E.79077
G1 X-13.8 Y24.877 E.16774
G1 X-13.8 Y3.646 E.79077
G1 X-10.615 Y.461 E.16774
G1 X10.575 Y.461 E.78928
G1 X10.823 Y-.039 F30000
;TYPE:Outer wall
G1 F3000
G1 X11.043 Y.182 E.0116
G1 X14.3 Y3.439 E.17157
G1 X14.3 Y25.084 E.8062
G1 X10.823 Y28.561 E.18317
G1 X-10.823 Y28.561 E.8062
G1 X-14.3 Y25.084 E.18317
G1 X-14.3 Y3.439 E.8062
G1 X-10.823 Y-.039 E.18317
G1 X10.783 Y-.039 E.80471
G1 X10.268 Y.598 F30000
;TYPE:Bottom surface
;WIDTH:0.500255
G1 F4800
G1 X13.457 Y3.788 E.1681
G1 X13.457 Y4.435 E.0241
G1 X9.826 Y.804 E.19135
G1 X9.18 Y.804 E.0241
G1 X13.457 Y5.082 E.22544
G1 X13.457 Y5.728 E.0241
G1 X8.533 Y.804 E.25953
G1 X7.886 Y.804 E.0241
G1 X13.457 Y6.375 E.29361
G1 X13.457 Y7.022 E.0241
G1 X7.239 Y.804 E.3277
G1 X6.593 Y.804 E.0241
G1 X13.457 Y7.669 E.36179
G1 X13.457 Y8.316 E.0241
G1 X5.946 Y.804 E.39587
G1 X5.299 Y.804 E.0241
G1 X13.457 Y8.962 E.42996
G1 X13.457 Y9.609 E.0241
G1 X4.652 Y.804 E.46405
G1 X4.006 Y.804 E.0241
G1 X13.457 Y10.256 E.49813
G1 X13.457 Y10.903 E.0241
G1 X10.631 Y8.077 E.14892
G1 X10.404 Y7.686 E.01685
G1 X10.135 Y7.279 E.01819
G1 X9.594 Y6.551 E.03382
G1 X8.981 Y5.845 E.03482
G1 X8.336 Y5.207 E.03382
G1 X7.971 Y4.883 E.01818
G1 X7.262 Y4.324 E.03364
G1 X6.867 Y4.047 E.01797
G1 X6.169 Y3.615 E.0306
G1 X3.359 Y.804 E.14812
G1 X2.712 Y.804 E.0241
G1 X4.864 Y2.956 E.1134
G1 X3.83 Y2.569 E.04112
G1 X2.065 Y.804 E.09303
G1 X1.418 Y.804 E.0241
G1 X2.922 Y2.308 E.07924
G1 X2.112 Y2.144 E.0308
G1 X.772 Y.804 E.07063
G1 X.125 Y.804 E.0241
G1 X1.35 Y2.029 E.06456
G1 X.652 Y1.978 E.02608
G1 X-.522 Y.804 E.06186
G1 X-1.169 Y.804 E.0241
G1 X-.011 Y1.961 E.06099
G1 X-.647 Y1.972 E.02369
G1 X-1.815 Y.804 E.06157
G1 X-2.462 Y.804 E.0241
G1 X-1.243 Y2.023 E.06424
G1 X-1.822 Y2.091 E.02172
G1 X-3.109 Y.804 E.06783
G1 X-3.756 Y.804 E.0241
G1 X-2.368 Y2.192 E.07313
G1 X-2.905 Y2.302 E.02041
G1 X-4.402 Y.804 E.07894
G1 X-5.049 Y.804 E.0241
G1 X-3.414 Y2.44 E.08619
G1 X-3.903 Y2.597 E.01916
G1 X-5.696 Y.804 E.09447
G1 X-6.343 Y.804 E.0241
G1 X-4.381 Y2.765 E.10337
G1 X-4.841 Y2.952 E.0185
G1 X-6.99 Y.804 E.11321
G1 X-7.636 Y.804 E.0241
G1 X-5.29 Y3.151 E.12367
G1 X-5.721 Y3.366 E.01796
G1 X-8.283 Y.804 E.13504
G1 X-8.93 Y.804 E.0241
G1 X-6.135 Y3.599 E.14732
G1 X-6.54 Y3.84 E.01759
G1 X-9.577 Y.804 E.16002
G1 X-10.223 Y.804 E.0241
G1 X-6.929 Y4.098 E.17361
G1 X-7.31 Y4.365 E.0173
G1 X-10.672 Y1.002 E.17721
G1 X-10.995 Y1.326 E.01704
G1 X-7.673 Y4.648 E.17507
G1 X-8.029 Y4.939 E.01713
G1 X-11.319 Y1.649 E.17338
G1 X-11.642 Y1.973 E.01704
G1 X-8.372 Y5.243 E.17234
G1 X-8.698 Y5.563 E.01704
G1 X-11.965 Y2.296 E.1722
G1 X-12.289 Y2.619 E.01704
G1 X-9.017 Y5.891 E.17244
G1 X-9.321 Y6.234 E.01707
G1 X-12.612 Y2.943 E.17346
M73 P1 R29
G1 X-12.936 Y3.266 E.01704
G1 X-9.615 Y6.586 E.17499
G1 X-9.898 Y6.95 E.01718
G1 X-13.259 Y3.59 E.17712
G1 X-13.457 Y3.788 E.01045
G1 X-13.457 Y4.038 E.00932
G1 X-10.163 Y7.332 E.17359
G1 X-10.42 Y7.722 E.0174
G1 X-13.457 Y4.685 E.16005
G1 X-13.457 Y5.332 E.0241
G1 X-10.662 Y8.127 E.14732
G1 X-10.893 Y8.542 E.01772
G1 X-13.457 Y5.978 E.13513
G1 X-13.457 Y6.625 E.0241
G1 X-11.111 Y8.971 E.12366
G1 X-11.312 Y9.417 E.01821
G1 X-13.457 Y7.272 E.11304
G1 X-13.457 Y7.919 E.0241
G1 X-11.494 Y9.882 E.10347
G1 X-11.67 Y10.353 E.01873
G1 X-13.457 Y8.565 E.0942
G1 X-13.457 Y9.212 E.0241
G1 X-11.818 Y10.852 E.08642
G1 X-11.959 Y11.357 E.01956
G1 X-13.457 Y9.859 E.07896
G1 X-13.457 Y10.506 E.0241
G1 X-12.073 Y11.89 E.07297
G1 X-12.167 Y12.443 E.02088
G1 X-13.457 Y11.153 E.06799
G1 X-13.457 Y11.799 E.0241
G1 X-12.237 Y13.019 E.06431
G1 X-12.29 Y13.613 E.02222
G1 X-13.457 Y12.446 E.06152
G1 X-13.457 Y13.093 E.0241
G1 X-12.302 Y14.248 E.06088
G1 X-12.29 Y14.907 E.02457
G1 X-13.457 Y13.74 E.06153
G1 X-13.457 Y14.386 E.0241
G1 X-12.228 Y15.616 E.0648
G1 X-12.126 Y16.364 E.02813
G1 X-13.457 Y15.033 E.07014
G1 X-13.457 Y15.68 E.0241
G1 X-11.954 Y17.183 E.07922
G1 X-11.697 Y18.087 E.03502
G1 X-13.457 Y16.327 E.09277
G1 X-13.457 Y16.973 E.0241
G1 X-10.878 Y19.553 E.13596
G1 E-.8 F2100
;WIPE_START
G1 F4800
G1 X-12.292 Y18.139
;WIPE_END
G1 X-5.196 Y15.328 Z.6 F30000
G1 X10.872 Y8.964 Z.6
G1 Z.2
G1 E.8 F2100
G1 F4800
G1 X13.457 Y11.549 E.13624
G1 X13.457 Y12.196 E.0241
G1 X11.689 Y10.427 E.09321
G1 X11.883 Y11.053 E.02439
G1 X11.947 Y11.333 E.01071
G1 X13.457 Y12.843 E.0796
G1 X13.457 Y13.49 E.0241
G1 X12.121 Y12.153 E.07045
G1 X12.232 Y12.911 E.02856
G1 X13.457 Y14.136 E.06458
G1 X13.457 Y14.783 E.0241
G1 X12.285 Y13.611 E.06181
G1 X12.3 Y14.272 E.02467
G1 X13.457 Y15.43 E.06101
G1 X13.457 Y16.077 E.0241
G1 X12.286 Y14.905 E.06174
G1 X12.24 Y15.506 E.02247
G1 X13.457 Y16.724 E.06414
G1 X13.457 Y17.37 E.0241
G1 X12.165 Y16.078 E.06812
G1 X12.075 Y16.635 E.02104
G1 X13.457 Y18.017 E.07283
G1 X13.457 Y18.664 E.0241
G1 X11.956 Y17.163 E.0791
G1 X11.819 Y17.672 E.01966
G1 X13.457 Y19.311 E.08635
G1 X13.457 Y19.957 E.0241
G1 X11.665 Y18.165 E.09444
G1 X11.497 Y18.644 E.0189
G1 X13.457 Y20.604 E.10332
G1 X13.457 Y21.251 E.0241
G1 X11.307 Y19.101 E.11331
G1 X11.11 Y19.55 E.01829
G1 X13.457 Y21.898 E.12371
G1 X13.457 Y22.544 E.0241
G1 X10.891 Y19.978 E.13526
G1 X10.666 Y20.4 E.01782
G1 X13.457 Y23.191 E.1471
G1 X13.457 Y23.838 E.0241
G1 X10.418 Y20.799 E.16017
G1 X10.168 Y21.195 E.01747
G1 X13.457 Y24.485 E.17337
G1 X13.457 Y24.735 E.00932
G1 X13.259 Y24.933 E.01045
G1 X9.899 Y21.573 E.17707
G1 X9.613 Y21.934 E.01716
G1 X12.935 Y25.257 E.1751
G1 X12.612 Y25.58 E.01704
M73 P1 R28
G1 X9.325 Y22.293 E.17325
G1 X9.014 Y22.629 E.01706
G1 X12.289 Y25.903 E.17257
G1 X11.965 Y26.227 E.01704
G1 X8.702 Y22.963 E.17201
G1 X8.368 Y23.276 E.01705
G1 X11.642 Y26.55 E.17256
G1 X11.319 Y26.873 E.01704
G1 X8.031 Y23.586 E.17328
G1 X7.672 Y23.874 E.01714
G1 X10.995 Y27.197 E.17513
G1 X10.672 Y27.52 E.01704
G1 X7.311 Y24.159 E.17715
G1 X6.929 Y24.424 E.01732
G1 X10.223 Y27.719 E.17364
G1 X9.577 Y27.719 E.0241
G1 X6.542 Y24.684 E.15992
G1 X6.134 Y24.922 E.01762
G1 X8.93 Y27.719 E.14737
G1 X8.283 Y27.719 E.0241
G1 X5.721 Y25.157 E.135
G1 X5.285 Y25.368 E.01805
G1 X7.636 Y27.719 E.12391
G1 X6.989 Y27.719 E.0241
G1 X4.846 Y25.575 E.11298
G1 X4.379 Y25.754 E.01865
G1 X6.343 Y27.719 E.10352
G1 X5.696 Y27.719 E.0241
G1 X3.908 Y25.93 E.09425
G1 X3.41 Y26.08 E.01936
G1 X5.049 Y27.719 E.08638
G1 X4.402 Y27.719 E.0241
G1 X2.901 Y26.217 E.07914
G1 X2.37 Y26.333 E.02023
G1 X3.756 Y27.719 E.073
G1 X3.109 Y27.719 E.0241
G1 X1.817 Y26.426 E.0681
G1 X1.248 Y26.505 E.02138
G1 X2.462 Y27.719 E.06397
G1 X1.815 Y27.719 E.0241
G1 X.641 Y26.545 E.06187
G1 X.012 Y26.562 E.02348
G1 X1.169 Y27.719 E.06098
G1 X.522 Y27.719 E.0241
G1 X-.647 Y26.55 E.06159
G1 X-1.354 Y26.49 E.02644
G1 X-.125 Y27.719 E.06475
G1 X-.772 Y27.719 E.0241
G1 X-2.111 Y26.379 E.07058
G1 X-2.921 Y26.216 E.0308
G1 X-1.419 Y27.719 E.07919
G1 X-2.065 Y27.719 E.0241
G1 X-3.827 Y25.957 E.09284
G1 X-4.867 Y25.563 E.04146
G1 X-2.712 Y27.719 E.11359
G1 X-3.359 Y27.719 E.0241
G1 X-6.167 Y24.911 E.14799
G1 X-7.066 Y24.339 E.03969
G1 X-7.79 Y23.79 E.03389
G1 X-8.162 Y23.474 E.01818
G1 X-8.816 Y22.849 E.03371
G1 X-9.15 Y22.493 E.01818
G1 X-9.733 Y21.795 E.03391
G1 X-10.276 Y21.035 E.03481
G1 X-10.638 Y20.439 E.02598
G1 X-13.457 Y17.62 E.14857
G1 X-13.457 Y18.267 E.0241
G1 X-4.006 Y27.719 E.49813
G1 X-4.652 Y27.719 E.0241
G1 X-13.457 Y18.914 E.46404
G1 X-13.457 Y19.561 E.0241
G1 X-5.299 Y27.719 E.42996
G1 X-5.946 Y27.719 E.0241
G1 X-13.457 Y20.207 E.39587
G1 X-13.457 Y20.854 E.0241
G1 X-6.593 Y27.719 E.36178
G1 X-7.239 Y27.719 E.0241
G1 X-13.457 Y21.501 E.3277
G1 X-13.457 Y22.148 E.0241
G1 X-7.886 Y27.719 E.29361
G1 X-8.533 Y27.719 E.0241
G1 X-13.457 Y22.794 E.25952
G1 X-13.457 Y23.441 E.0241
G1 X-9.18 Y27.719 E.22544
G1 X-9.827 Y27.719 E.0241
G1 X-13.457 Y24.088 E.19135
G1 X-13.457 Y24.735 E.0241
G1 X-10.268 Y27.924 E.1681
G1 E-.8 F2100
;WIPE_START
G1 F4800
G1 X-11.682 Y26.51
;WIPE_END
G1 X-9.611 Y19.164 Z.6 F30000
G1 X3.296 Y-26.627 Z.6
G1 Z.2
G1 E.8 F2100
;TYPE:Inner wall
;WIDTH:0.5
G1 F3000
G1 X3.966 Y-26.455 E.02577
G1 X5.547 Y-25.415 E.07047
G1 X5.878 Y-25.162 E.01552
M73 P2 R28
G1 X6.457 Y-24.655 E.02868
G1 X6.747 Y-24.365 E.01527
G1 X7.258 Y-23.779 E.02898
G1 X7.716 Y-23.149 E.02898
G1 X7.935 Y-22.802 E.01527
G1 X8.304 Y-22.118 E.02898
G1 X8.612 Y-21.403 E.02898
G1 X8.749 Y-21.016 E.01527
G1 X8.959 Y-20.267 E.02898
G1 X9.102 Y-19.494 E.02929
G1 X9.177 Y-18.711 E.02929
G1 X9.182 Y-17.925 E.02929
G1 X9.117 Y-17.141 E.02929
G1 X8.984 Y-16.374 E.02898
G1 X8.887 Y-15.976 E.01527
G1 X8.653 Y-15.234 E.02898
G1 X8.351 Y-14.507 E.02929
G1 X7.986 Y-13.811 E.02929
G1 X7.56 Y-13.15 E.02929
G1 X7.078 Y-12.529 E.02929
G1 X6.546 Y-11.958 E.02904
G1 X5.957 Y-11.428 E.02954
G1 X5.327 Y-10.956 E.0293
G1 X4.664 Y-10.546 E.02905
G1 X3.955 Y-10.19 E.02954
G1 X3.224 Y-9.901 E.0293
G1 X2.469 Y-9.678 E.0293
G1 X1.698 Y-9.523 E.02929
G1 X.917 Y-9.437 E.02929
G1 X.13 Y-9.421 E.0293
G1 X-.654 Y-9.475 E.02929
G1 X-1.433 Y-9.599 E.02935
G1 X-3.225 Y-10.058 E.06893
